X: 80
M:6/8
L:1/8
Q:120
K:Fm
|:e2 e e>=dc| B2 B B2 G| A>Bc B2 A| G3 E3| F3 f e2 f| g3 c2 c| =d>ef fe2 | f3 f3:|

